X:1
T:Title
%%score { ( 1 3 ) | ( 2 4 ) }
L:1/8
M:3/4
K:F
V:1 treble nm="Grand Piano"
V:3 treble 
V:2 bass 
V:4 bass 
V:1
 z2 z2[Q:1/4=100] CF | A3 G FA | c4 A>B | [EG]4 [EG]>[EA] |[M:2/4] F4 |[M:1/4] CF | %6
[M:3/4] A3 G FA | c4 A>A | G4 =B>d |[M:2/4] [Ec]4 |[M:1/4] [Fc]>[GB] |[M:3/4] A3 A GA | B4 B>A | %13
 G3 [EG] FG |[M:2/4] A4 |[M:1/4] CF |[M:3/4] A3 A GF | d4 z2 |[M:7/8] [Fc]2 F3 [B,EG]>[CEA] | %19
[M:2/4] [A,F]4 |] %20
V:2
 z2 z2 [F,A,][F,A,C] | [F,CF]3 [F,B,C] [F,A,C][F,CF] | [F,A,F]4 [F,CF]>[F,DF] | %3
 [C,B,]4 [C,B,]>[C,C] |[M:2/4] [F,A,]4 |[M:1/4] [F,A,][F,A,C] | %6
[M:3/4] [F,CF]3 [F,B,C] [F,A,C][K:treble][F,CF] | [F,A,F]4 [F,CF]>[F,CF] | %8
 [G,CE]4 [G,DF]>[G,=B,F] |[M:2/4][K:bass] [C,C]4 |[M:1/4] [D,C]>[E,C] | %11
[M:3/4] [F,CF]3 [F,CF][K:treble] [B,CE][A,CF] | [G,CE]4 [G,CE]>[F,CF] | %13
 [E,C]3 [C,B,] [D,A,][E,G,C] |[M:2/4] [F,C]4 |[M:1/4] [F,A,][F,A,C] | %16
[M:3/4] [F,CF]3 [F,C_E] [F,B,E][F,A,E] | [B,,B,]4 [B,,G,]>[=B,,_A,] | %18
[M:7/8] [C,A,]-[C,A,]- [C,A,]3 z2 |[M:2/4] F,4 |] %20
V:3
 x6 | x6 | x6 | x6 |[M:2/4] x4 |[M:1/4] x2 |[M:3/4] x6 | x6 | x6 |[M:2/4] x4 |[M:1/4] x2 | %11
[M:3/4] x6 | x6 | x6 |[M:2/4] x4 |[M:1/4] x2 |[M:3/4] x6 | D2 F2 [Fd]>[Fd] |[M:7/8] x7 | %19
[M:2/4] x4 |] %20
V:4
 x6 | x6 | x6 | x6 |[M:2/4] x4 |[M:1/4] x2 |[M:3/4] x5[K:treble] x | x6 | x6 |[M:2/4][K:bass] x4 | %10
[M:1/4] x2 |[M:3/4] x4[K:treble] x2 | x6 | x6 |[M:2/4] x4 |[M:1/4] x2 |[M:3/4] x6 | x6 | %18
[M:7/8] z2 C3 C,>C, |[M:2/4] x4 |] %20

